apps/color-api-app.svg

<svg id="Layer_1" data-name="Layer 1" xmlns="http://www.w3.org/2000/svg" viewBox="0 0 32 32"><defs><style>.cls-1,.cls-2{fill:#3b9ccf;fill-rule:evenodd}.cls-2{fill:#fff}.cls-3{fill:#fec123}.cls-4{fill:#4a4a4d}</style></defs><title>color-api-app</title><path class="cls-1" d="M30 26.973A3.027 3.027 0 0 1 26.973 30H5.027A3.027 3.027 0 0 1 2 26.973V5.027A3.027 3.027 0 0 1 5.027 2h21.946A3.027 3.027 0 0 1 30 5.027z"/><path class="cls-2" d="M27 26.239a.761.761 0 0 1-.761.761H5.761A.761.761 0 0 1 5 26.239V5.761A.761.761 0 0 1 5.761 5h20.478a.761.761 0 0 1 .761.761z"/><path class="cls-3" d="M10 2h12v3.007a.993.993 0 0 1-.993.993H10.993A.993.993 0 0 1 10 5.007V2z"/><path class="cls-4" d="M16.207 15.211l.87-1.508-2.153-1.243-.882 1.528a3.622 3.622 0 0 0-1.446.007l-.879-1.522-2.153 1.243.893 1.546a3.809 3.809 0 0 0-.716 1.238H7.972v2.486h1.759a3.812 3.812 0 0 0 .724 1.267l-.868 1.5L11.74 23l.853-1.478a3.781 3.781 0 0 0 1.509 0l.845 1.463 2.153-1.241-.856-1.482a3.81 3.81 0 0 0 .739-1.3h1.709v-2.489h-1.735a3.814 3.814 0 0 0-.75-1.262zm-4.946 2.548a2.092 2.092 0 1 1 2.092 2.092 2.092 2.092 0 0 1-2.092-2.092z"/><path class="cls-4" d="M19.751 10.28v1.16a2.355 2.355 0 0 0-.293.132 2.4 2.4 0 0 0-1.181 2.373l-.967.558.906 1.569.952-.55a2.306 2.306 0 0 0 2.968 0l.957.552.907-1.569-.972-.561a2.354 2.354 0 0 0-1.465-2.505V10.28zm1.349 4.141a.892.892 0 1 1 .33-1.221.892.892 0 0 1-.33 1.221z"/></svg>

<svg id="Layer_1" data-name="Layer 1" xmlns="http://www.w3.org/2000/svg" viewBox="0 0 32 32"><defs><style>.cls-1{fill:#3b9ccf;}.cls-1,.cls-2{fill-rule:evenodd;}.cls-2{fill:#fff;}.cls-3{fill:#fec123;}.cls-4{fill:#4a4a4d;}</style></defs><title>color-api-app</title><path class="cls-1" d="M30,26.973A3.027,3.027,0,0,1,26.973,30H5.027A3.027,3.027,0,0,1,2,26.973V5.027A3.027,3.027,0,0,1,5.027,2H26.973A3.027,3.027,0,0,1,30,5.027Z"/><path class="cls-2" d="M27,26.239a.761.761,0,0,1-.761.761H5.761A.761.761,0,0,1,5,26.239V5.761A.761.761,0,0,1,5.761,5H26.239A.761.761,0,0,1,27,5.761Z"/><path class="cls-3" d="M10,2H22a0,0,0,0,1,0,0V5.007A.993.993,0,0,1,21.007,6H10.993A.993.993,0,0,1,10,5.007V2A0,0,0,0,1,10,2Z"/><path class="cls-4" d="M16.207,15.211l.87-1.508L14.924,12.46l-.882,1.528a3.622,3.622,0,0,0-1.446.007l-.879-1.522L9.564,13.716l.893,1.546A3.809,3.809,0,0,0,9.741,16.5H7.972v2.486H9.731a3.812,3.812,0,0,0,.724,1.267l-.868,1.5L11.74,23l.853-1.478a3.781,3.781,0,0,0,1.509,0l.845,1.463L17.1,21.744l-.856-1.482a3.81,3.81,0,0,0,.739-1.3h1.709V16.473H16.957A3.814,3.814,0,0,0,16.207,15.211Zm-4.946,2.548a2.092,2.092,0,1,1,2.092,2.092A2.092,2.092,0,0,1,11.261,17.759Z"/><path class="cls-4" d="M19.751,10.28V11.44a2.355,2.355,0,0,0-.293.132,2.4,2.4,0,0,0-1.181,2.373l-.967.558.906,1.569.952-.55a2.306,2.306,0,0,0,2.968,0l.957.552L24,14.505l-.972-.561a2.354,2.354,0,0,0-1.465-2.505V10.28ZM21.1,14.421A.892.892,0,1,1,21.43,13.2.892.892,0,0,1,21.1,14.421Z"/></svg>
